X:1
T:The Silver Tassie
M:4/4
L:1/8
K:C
 z4 z2 z C| C2 E3/2- F/2 G2A-B|c-BA-G E3 E| D2 E3/2 G/2 c3- d|e-dc-B A2 GE|\
 C2 E3/2- F/2 G2A-B|c-BA-G E3 G| e3 d c/2 A3/2 G3/2 E/2| D2 E3/2- G/2- A2G-G|\
 c2c/2-d/2-e/2-d/2 c3 A|G-Ac-G E3 E| D2 D3/2- G/2 c3 d|e-dc-B A2 AA|\
 c2 c-d/2-e/2 A2 A-B/2-c/2| G2 f3/2- e/2 d3 B| c3 B A3/2 A/2 cE| D3- E3/2- G/2 A2 z|\


